X: 4055
T: Bleaton Gardens
R: reel
M: 4/4
K: Amajor
a|A2 c/B/A aecA|B2 d/c/B fBbB|A2 c/B/A aece|afed cA A:|
c|f2 cf afcf|g2 eg bgeg|f2 cf afcf|gabg af f2|
f2 cf afcf|g2 eg bgeg|aefa gfed|caed cA A||

